X: 327
T: Fill the Glass   #2
T: lion an gloine
R: air, waltz
%S: s:3 b:32(8+8+8
B: O'Neill's 1850 #327
O: F.O'Neill
Z: 1999 by John Chambers <jc@trillian.mit.edu>
N: Compacted by using labels and play order [JC]
P: Play AB CB
Q: "Moderate"
M: 3/4
L: 1/4
K: G
"^A"[| (G2F) | (GA).c | (d2c) | A2d | c2(A/G/) | (F2D) | D2D | (DEF) |]
"^B"[| (G2F) | (GA).c | d2A | cde | =fed | cAF | G3 | "^fine"G3 |]
"^C"[| (g2f) | (g2a) | g2f | d2e | =f2e | (de=f) | d2A | (F2"^->B"D) |]
